icon_installer/data/icons/scalable/actions/show-tablet-symbolic.svg

<?xml version="1.0" encoding="UTF-8"?>
<svg height="16px" viewBox="0 0 16 16" width="16px" xmlns="http://www.w3.org/2000/svg">
    <g fill="#222222">
        <path d="m 12.402344 4.148438 l -4.953125 4.953124 l -0.449219 1.898438 l 1.871094 -0.390625 l 5 -5 c 0.546875 -0.59375 0.628906 -1.109375 0.128906 -1.609375 s -1.167969 -0.277344 -1.597656 0.148438 z m 0 0"/>
        <path d="m 8 0 v 1.5 c 0 0.132812 -0.054688 0.261719 -0.144531 0.355469 c -0.09375 0.09375 -0.21875 0.144531 -0.347657 0.144531 h -3.011718 c -0.535156 0 -1.03125 0.289062 -1.296875 0.75 c -0.265625 0.464844 -0.265625 1.035156 0 1.5 c 0.265625 0.460938 0.761719 0.75 1.292969 0.75 h 3.011718 c 0.179688 0 0.339844 0.09375 0.429688 0.25 c 0.042968 0.074219 0.066406 0.164062 0.066406 0.25 v 0.5 h -5.808594 l -1.929687 9 h 15.472656 l -1.734375 -8.105469 l -1.683594 1.6875 l 0.945313 4.417969 h -10.523438 l 1.070313 -5 h 3.328125 l 2 -2 h -0.136719 v -0.5 c 0 -0.257812 -0.066406 -0.515625 -0.199219 -0.75 c -0.265625 -0.460938 -0.761719 -0.75 -1.296875 -0.75 h -3.011718 c -0.175782 0 -0.335938 -0.09375 -0.425782 -0.25 c -0.089844 -0.152344 -0.089844 -0.347656 0 -0.5 c 0.089844 -0.15625 0.25 -0.25 0.429688 -0.25 h 3.011718 c 0.398438 0 0.777344 -0.160156 1.054688 -0.441406 c 0.28125 -0.28125 0.4375 -0.660156 0.4375 -1.058594 v -1.5 z m 0 0"/>
    </g>
</svg>

<svg xmlns="http://www.w3.org/2000/svg" width="16" height="16"><g fill="#222"><path d="M12.402 4.148 7.45 9.102 7 11l1.871-.39 5-5C14.418 5.015 14.5 4.5 14 4s-1.168-.277-1.598.148zm0 0"/><path d="M8 0v1.5a.491.491 0 0 1-.492.5H4.496a1.501 1.501 0 0 0-.004 3h3.012c.18 0 .34.094.43.25A.51.51 0 0 1 8 5.5V6H2.191l-1.93 9h15.473L14 6.895l-1.684 1.687.946 4.418H2.738l1.07-5h3.329l2-2H9v-.5A1.501 1.501 0 0 0 7.504 4H4.492a.49.49 0 0 1-.426-.25.497.497 0 0 1 0-.5.49.49 0 0 1 .43-.25h3.012A1.499 1.499 0 0 0 9 1.5V0zm0 0"/></g></svg>
